X: 11531
T: TALK NOT OF YOUR DIRTY ACRES.
T: Bass song from the Opera of "Two to One."
C: Dr. Arnold.
Q: "Bold and with spirit."
%R: air, march
B: W. Hamilton "Universal Tune-Book" Vol. 1 Glasgow 1844 p.153 #1
S: http://imslp.org/wiki/Hamilton's_Universal_Tune-Book_(Various)
Z: 2016 John Chambers <jc:trillian.mit.edu>
M: C
L: 1/8
K: Bb
% - - - - - - - - - - - - - - - - - - - - - - - - -
[|\
B4 (d2c2) | (TB3A/G/ F2)D2 | (TE3D/E/ F2)E2 | (D2C2) B,4 |\
F4 F4 | F6 (GA) | B4 B,4 | F4 z4 |\
c4 A4 | F4 C4 |
B4 G4 | =E4 C4 |\
(D2C2) (D2=E2) | (F2E2) (F2G2) | (A2G2) (A2B2) | c4 z4 |\
D4 d4 | =E4 F4 | C6 C2 | F4 |]
F2G2 |\
A2B2 c2d2 | e2d2 c2B2 | A2G2 F2E2 | D4 D2=E2 |\
^F2G2 A2B2 | c2B>B A2G2 | ^F2=E2 F2D2 | G4 z4 |\
e6 e2 | F6 F2 |
B4 B,4 | F2F2 z2D2 |\
E2F2 G2A2 | (TB3c) d2c2 | (TB3c) d2c2 | B4 z2D2 |\
E2F2 G2A2 | B4 E4 | F6 F2 | B,4 z4 |]
% - - - - - - - - - - - - - - - - - - - - - - - - -

%%sep 1 1 500
%%sep 1 1 500

